X: 1
T:Buckskin Reel
C:Andy DeJarlis
R:Reel
M:C|
L: 1/8
Q:1/2 = 115
K:D
de|"D" f2g/f/ef2a2|fded BAFA|"Bm"B2c/B/A Bcde|"D"fdef"A"e2de| 
"D"f2g/f/ef2a2|fded BAFA|"Bm"B2d/B/A BAFB|"A"AFEF"D"D2:|
|:DE|"D"F2F2 E2DE|FEDB,A,2DE|F2DF EDFA|"Bm"BcBAB2DE|
"D"F2F2E2DE|FEDB,A,2DE|F2DF "A"EDCE |"D"D2DDD2:|